justvector/ember.svg

<?xml version="1.0" encoding="iso-8859-1"?>
<!-- Generator: Adobe Illustrator 15.0.0, SVG Export Plug-In . SVG Version: 6.00 Build 0)  -->
<!DOCTYPE svg PUBLIC "-//W3C//DTD SVG 1.1//EN" "http://www.w3.org/Graphics/SVG/1.1/DTD/svg11.dtd">
<svg version="1.1" id="Icons" xmlns="http://www.w3.org/2000/svg" xmlns:xlink="http://www.w3.org/1999/xlink" x="0px" y="0px"
	 width="100px" height="100px" viewBox="0 0 100 100" style="enable-background:new 0 0 100 100;" xml:space="preserve">
<path id="Ember" style="fill-rule:evenodd;clip-rule:evenodd;" d="M86.677,35.978c-1.311,4.874-6.476,7.31-6.476,7.31
	C68.432,13.381,53.041,5,53.041,5c-0.654,9.594-12.258,17.158-12.258,17.158l-8.051-4.238c1.3,6.808-2.861,13.167-2.861,13.167
	C13.196,41.978,19.613,64.38,19.613,64.38L12.5,61.148c5.293,38.331,37.646,33.674,37.646,33.674
	C96.242,94.497,86.677,35.978,86.677,35.978z M48.91,87.6C21.25,87.405,26.99,52.293,26.99,52.293
	c0.784,2.925,3.883,4.386,3.883,4.386c7.063-17.944,16.297-22.971,16.297-22.971c0.395,5.752,7.357,10.296,7.357,10.296l4.829-2.545
	c-0.781,4.086,1.717,7.899,1.717,7.899c10.003,6.533,6.155,19.976,6.155,19.976l4.267-1.938C68.32,90.393,48.91,87.6,48.91,87.6z"/>
</svg>

<?xml version="1.0" encoding="UTF-8" standalone="no"?>
<!DOCTYPE svg PUBLIC "-//W3C//DTD SVG 1.1//EN" "http://www.w3.org/Graphics/SVG/1.1/DTD/svg11.dtd">
<svg width="100%" height="100%" viewBox="0 0 100 100" version="1.1" xmlns="http://www.w3.org/2000/svg" xmlns:xlink="http://www.w3.org/1999/xlink" xml:space="preserve" xmlns:serif="http://www.serif.com/" style="fill-rule:evenodd;clip-rule:evenodd;stroke-linejoin:round;stroke-miterlimit:2;">
    <path id="Ember" d="M86.677,35.978C85.366,40.852 47.528,83.324 47.528,83.324C35.759,53.417 53.041,5 53.041,5C52.387,14.594 40.783,22.158 40.783,22.158L32.732,17.92C34.032,24.728 29.871,31.087 29.871,31.087C13.196,41.978 19.613,64.38 19.613,64.38L12.5,61.148C17.793,99.479 50.146,94.822 50.146,94.822C96.242,94.497 86.677,35.978 86.677,35.978ZM48.91,87.6C21.25,87.405 26.99,52.293 26.99,52.293C27.774,55.218 30.873,56.679 30.873,56.679C37.936,38.735 47.17,33.708 47.17,33.708C39.921,67.137 47.528,83.324 47.528,83.324C47.507,83.296 56.038,74.223 59.907,64.546C62.608,57.792 61.073,49.358 61.073,49.358C71.076,55.891 67.228,69.334 67.228,69.334L71.495,67.396C68.32,90.393 48.91,87.6 48.91,87.6Z" style="fill:rgb(255,0,0);"/>
</svg>
